X:8
T:Big Sciote
S:Bernie Waugh
R:Reel
M:4/4
L:1/8
K:G
|:z2|\
"G"DEGA BAGB|A[D2B2]A [D2B2]Bd|"G"BAGE DEGA|A[D2B2]A [D2B2]GE|
"G"DEGA B2d2|"Em"[de]e2e- e2eg|"D"edBB AGED|"G"E[G2B2]G [G2B2]:|
|:\
ef|"G"g2ga bag2|"Am"g[A2a2][Aa-] agaa-|abag e2d2|"Em"[de]e2e- e2ef|
g2fg edB2|"C"B[c2e2][ce]- [c2e2]eg|edBG AGED|"G"E[G2B2]G [G2B2]:|

